material/.icons/material/microphone-off.svg

<svg xmlns="http://www.w3.org/2000/svg" viewBox="0 0 24 24"><path d="M19 11c0 1.19-.34 2.3-.9 3.28l-1.23-1.23c.27-.62.43-1.31.43-2.05H19m-4 .16L9 5.18V5a3 3 0 013-3 3 3 0 013 3v6.16M4.27 3L21 19.73 19.73 21l-4.19-4.19c-.77.46-1.63.77-2.54.91V21h-2v-3.28c-3.28-.49-6-3.31-6-6.72h1.7c0 3 2.54 5.1 5.3 5.1.81 0 1.6-.19 2.31-.52l-1.66-1.66L12 14a3 3 0 01-3-3v-.72L3 4.27 4.27 3z"/></svg>

<?xml version="1.0" encoding="UTF-8"?><!DOCTYPE svg PUBLIC "-//W3C//DTD SVG 1.1//EN" "http://www.w3.org/Graphics/SVG/1.1/DTD/svg11.dtd"><svg xmlns="http://www.w3.org/2000/svg" xmlns:xlink="http://www.w3.org/1999/xlink" version="1.1" id="mdi-microphone-off" width="24" height="24" viewBox="0 0 24 24"><path d="M19,11C19,12.19 18.66,13.3 18.1,14.28L16.87,13.05C17.14,12.43 17.3,11.74 17.3,11H19M15,11.16L9,5.18V5A3,3 0 0,1 12,2A3,3 0 0,1 15,5V11L15,11.16M4.27,3L21,19.73L19.73,21L15.54,16.81C14.77,17.27 13.91,17.58 13,17.72V21H11V17.72C7.72,17.23 5,14.41 5,11H6.7C6.7,14 9.24,16.1 12,16.1C12.81,16.1 13.6,15.91 14.31,15.58L12.65,13.92L12,14A3,3 0 0,1 9,11V10.28L3,4.27L4.27,3Z" /></svg>
